X:1
T: Burnside of Tynet
C:William Marshall
R:Reel
Q: 232
K:Em
M:4/4
L:1/8
|:A|^GA1/2B1/2 BA GE EG|AF DF dF DF|^GA1/2B1/2 BA GE EG|AF DF E2 EA|
^GA1/2B1/2 BA GE EG|AF DF dF DF|^GA1/2B1/2 BA GE EG|AF DF E2 EA|
^GA1/2B1/2 BA GA Bc|de fc dD DF|^GA1/2B1/2 BA GA Be|f^d Bd e2 eB|
^GA1/2B1/2 BA GA Bc|de fc dD DF|B,E EF GA Bd|FD AF E2 E:|

